icons/1_Primary/Formspree.svg

<svg width="1024" height="1024" viewBox="0 0 1024 1024" fill="none" xmlns="http://www.w3.org/2000/svg">
<g clip-path="url(#clip0_2_2223)">
<path d="M512 1024C794.77 1024 1024 794.77 1024 512C1024 229.23 794.77 0 512 0C229.23 0 0 229.23 0 512C0 794.77 229.23 1024 512 1024Z" fill="#FF837D"/>
<path d="M293.36 307C293.36 296.126 297.68 285.698 305.369 278.009C313.058 270.32 323.486 266 334.36 266H689.64C700.514 266 710.943 270.32 718.632 278.009C726.321 285.698 730.64 296.126 730.64 307V365.58C730.64 376.454 726.321 386.882 718.632 394.571C710.943 402.26 700.514 406.58 689.64 406.58H334.36C323.486 406.58 313.058 402.26 305.369 394.571C297.68 386.882 293.36 376.454 293.36 365.58V307ZM293.36 482.71C293.36 471.836 297.68 461.408 305.369 453.719C313.058 446.03 323.486 441.71 334.36 441.71H689.64C700.514 441.71 710.943 446.03 718.632 453.719C726.321 461.408 730.64 471.836 730.64 482.71V541.29C730.64 552.164 726.321 562.592 718.632 570.281C710.943 577.97 700.514 582.29 689.64 582.29H334.36C323.486 582.29 313.058 577.97 305.369 570.281C297.68 562.592 293.36 552.164 293.36 541.29V482.71ZM334.36 617.42C323.486 617.42 313.058 621.74 305.369 629.429C297.68 637.118 293.36 647.546 293.36 658.42V717C293.36 727.874 297.68 738.302 305.369 745.991C313.058 753.68 323.486 758 334.36 758H498.36C509.234 758 519.663 753.68 527.352 745.991C535.041 738.302 539.36 727.874 539.36 717V658.42C539.36 647.546 535.041 637.118 527.352 629.429C519.663 621.74 509.234 617.42 498.36 617.42H334.36Z" fill="white"/>
</g>
<defs>
<clipPath id="clip0_2_2223">
<rect width="1024" height="1024" fill="white"/>
</clipPath>
</defs>
</svg>

<svg xmlns="http://www.w3.org/2000/svg" width="1024" height="1024" fill="none">
   <g clip-path="url(#a)">
      <path fill="#FF837D" d="M512 1024c282.77 0 512-229.23 512-512S794.77 0 512 0 0 229.23 0 512s229.23 512 512 512Z"/>
      <path fill="#fff" d="M293.36 307a41 41 0 0 1 41-41h355.28a41.002 41.002 0 0 1 41 41v58.58a40.998 40.998 0 0 1-41 41H334.36a41 41 0 0 1-41-41V307Zm0 175.71a41 41 0 0 1 41-41h355.28a41.002 41.002 0 0 1 41 41v58.58a40.998 40.998 0 0 1-41 41H334.36a41 41 0 0 1-41-41v-58.58Zm41 134.71a41 41 0 0 0-41 41V717a41 41 0 0 0 41 41h164a41.002 41.002 0 0 0 41-41v-58.58a40.998 40.998 0 0 0-41-41h-164Z"/>
   </g>
   <defs>
      <clipPath id="a">
         <path fill="#fff" d="M0 0h1024v1024H0z"/>
      </clipPath>
   </defs>
</svg>
